X: 74
T:John Lardner's Reel
M:C
L:1/8
Z:Philippe Varlet
K:A Major
A2cA B2AF|E3F ABce|a2ge faec|cBBA B2cB|!
A2cA B2AF|E3F ABce|a2ge faec|BABc A4:|!
E2GE BEGE|A2cA eAcA|B2^dB fBdB|e2ge bege|!
agae faec|defg a2fg|a2ge faec|BABc A4:|!
<end>
<start>
